X:1
T:Title
%%score ( 1 2 ) ( 3 4 )
L:1/8
Q:1/4=100
M:4/4
K:E
V:1 treble nm="Midi_20"
V:2 treble 
V:3 bass nm="Midi_20"
V:4 bass 
V:1
"^Diligence (76. 75. D)""^Lowell Mason\n(1792-1872)""^Anna Louisa Coghill\n(1836-1907)""^Work, for the night is coming!" B2 G>A B2 B2 | %1
 c4 B4 | E2 E>E E2 F2 | G8 || B2 G>A B2 B2 | c4 B4 | E2 F2 G2 F2 | E8 || F2 F>F F2 G2 | A3 G F4 | %10
 G2 G>G G2 ^A2 | B8 || B2 G>A B2 B2 | c4 B4 | E2 F2 G2 F2 | E8 |] %16
V:2
 G2 E>F G2 E2 | C4 E4 | E2 E>E C2 D2 | E8 || G2 E>F G2 E2 | (C2 D2) E4 | E2 E2 E2 D2 | E8 || %8
 D2 F>E D2 E2 | F3 E D4 | E2 G>F E2 E2 | D8 || G2 E>F G2 E2 | (C2 D2) E4 | E2 E2 E2 D2 | E8 |] %16
V:3
 B,2 B,>A, G,2 G,2 | A,4 G,4 | G,2 G,>G, G,2 B,2 | B,8 || B,2 B,>A, G,2 G,2 | (E,2 F,2) G,4 | %6
 B,2 C2 B,2 A,2 | G,8 || %8
"^1. Work, for the night is coming!\nWork through the morning hours;\nWork while the dew is sparkling;\nWork 'mid springing flowers;\nWork while the day grows brighter,\nUnder the glowing sun;\nWork, for the night is coming,\nWhen man's work is done.\n\n2. Work, for the night is coming!\nWork through the sunny noon;\nFill brightest hours with labour;\nRest comes sure and soon.\nGive to each flying minute\nSomething to keep in store;\nWork, for the night is coming,\nWhen man works no more." B,2 B,>^A, B,2 B,2 | %9
 B,4 B,4 | B,2 B,>B, E2 C2 | %11
"^3. Work, for the night is coming!\nUnder the sunset skies,\nWhile their bright tints are glowing,\nWork, for daylight dies.\nWork till the last beam fadeth,\nFadeth to shine no more;\nWork while the night is darkening,\nWhen man's work is o'er." B,8 || %12
 B,2 B,>A, G,2 E2 | (C2 D2) E4 | B,2 C2 B,2 A,2 | G,8 |] %16
V:4
 E,2 G,>F, E,2 E,2 | A,,4 E,4 | C,2 C,>C, C,2 B,,2 | E,8 || E,2 G,>F, E,2 E,2 | A,,4 E,4 | %6
 G,2 A,2 B,2 B,,2 | E,8 || B,,2 D,>C, B,,2 E,2 | D,3 E, B,,4 | E,2 E,>D, C,2 F,2 | B,,8 || %12
 E,2 G,>F, E,2 E,2 | A,4 E,4 | G,2 A,2 B,2 B,,2 | E,8 |] %16

